X: 231
T: the Humours of Glyn
%R: waltz, air
Z: 2017 John Chambers <jc:trillian.mit.edu>
B: John Treat - "Gamut for the Fifes", 1779, p.23 #1
F: https://archive.org/details/GamutFortheFifes
N: Moved the dot between the first two endings, to fix the rhythms.
N: Converted the 2nd strain's endings to modern notation.
M: 3/4
L: 1/8
K: Am
% - - - - - - - - - - - - - - - - - - - - - - - - -
|:\
A4 AB | A2 E4 | c4 cd | c2 E4 |\
AB cB AG | A2 F2 EC | D2 E2 G2 |1 A6 :|2 A4 |: G2 |\
c4 cd | c2 d2 ef | g4 ga | g2 e2 c2 | f2 e2 c2 | f2 de fd |
e2 c2 A2 | G2 E2 G2 |1 A4 :|2 A6 |]\
a2 bagf | g2 agfe | f2 d2 g2 | e2 c2 A2 |\
a2 bagf | g2 agfe | f2 d2 g2 | e2 c2 A2 |\
f2 defd | e2 c2 A2 | G2 E2 G2 | A6 |]
% - - - - - - - - - - - - - - - - - - - - - - - - -
